sprite/icon-social-vkontakte.svg

<svg width="18" height="18" viewBox="0 0 18 18" fill="none" xmlns="http://www.w3.org/2000/svg">
<g clip-path="url(#clip0_35858_76)">
<path fill-rule="evenodd" clip-rule="evenodd" d="M17.5875 4.711C17.712 4.3015 17.5875 4 16.9913 4H15.0225C14.5215 4 14.2905 4.26025 14.1652 4.5475C14.1652 4.5475 13.164 6.9445 11.7458 8.5015C11.2868 8.953 11.0783 9.09625 10.8278 9.09625C10.7025 9.09625 10.5143 8.953 10.5143 8.54275V4.711C10.5143 4.219 10.3763 4 9.95925 4H6.86325C6.5505 4 6.36225 4.228 6.36225 4.44475C6.36225 4.9105 7.07175 5.0185 7.1445 6.3295V9.178C7.1445 9.80275 7.02975 9.916 6.77925 9.916C6.11175 9.916 4.488 7.50775 3.52425 4.75225C3.3375 4.216 3.1485 4 2.64525 4H0.675C0.1125 4 0 4.26025 0 4.5475C0 5.059 0.6675 7.6 3.10875 10.9608C4.73625 13.2558 7.0275 14.5 9.11475 14.5C10.3665 14.5 10.521 14.224 10.521 13.7478V12.013C10.521 11.4603 10.6395 11.35 11.0363 11.35C11.3288 11.35 11.829 11.494 12.9975 12.6003C14.3325 13.912 14.5523 14.5 15.3038 14.5H17.2725C17.835 14.5 18.117 14.224 17.955 13.678C17.7765 13.135 17.139 12.3468 16.2938 11.4115C15.8348 10.879 15.1463 10.3053 14.937 10.018C14.6453 9.64975 14.7285 9.4855 14.937 9.15775C14.937 9.15775 17.337 5.83825 17.5867 4.711H17.5875Z" fill="#D22856"/>
</g>
<defs>
<clipPath id="clip0_35858_76">
<rect width="18" height="18" fill="white"/>
</clipPath>
</defs>
</svg>

<svg width="18" height="18" fill="none" xmlns="http://www.w3.org/2000/svg"><g clip-path="url(#a)"><path fill-rule="evenodd" clip-rule="evenodd" d="M17.59 4.71c.12-.4 0-.71-.6-.71h-1.97c-.5 0-.73.26-.85.55 0 0-1 2.4-2.42 3.95-.46.45-.67.6-.92.6-.13 0-.32-.15-.32-.56V4.71c0-.5-.13-.71-.55-.71h-3.1c-.3 0-.5.23-.5.44 0 .47.71.58.78 1.89v2.85c0 .62-.11.74-.36.74-.67 0-2.3-2.41-3.26-5.17-.18-.53-.37-.75-.87-.75H.68C.1 4 0 4.26 0 4.55c0 .5.67 3.05 3.1 6.41 1.64 2.3 3.93 3.54 6.01 3.54 1.26 0 1.41-.28 1.41-.75V12c0-.55.12-.66.52-.66.29 0 .79.14 1.96 1.25 1.33 1.31 1.55 1.9 2.3 1.9h1.97c.57 0 .85-.28.68-.82a8.36 8.36 0 0 0-1.66-2.27c-.46-.53-1.14-1.1-1.35-1.4-.3-.36-.21-.52 0-.85 0 0 2.4-3.32 2.65-4.45Z" fill="#D22856"/></g><defs><clipPath id="a"><rect width="18" height="18" fill="white"/></clipPath></defs></svg>
